X:1
T:MISSA super ES SOLT EIN MEGDLEIN HOLEN WEIN
T:MISSA super ES SOLT EIN MEGDLEIN HOLEN WEIN
T:(Colyn) SAMPSON
C:(Colyn) SAMPSON
%%score [ 1 2 3 4 ]
L:1/8
Q:1/4=120
M:2/2
K:F
V:1 treble nm="Soprano"
V:2 alto nm="Alto"
V:3 alto nm="Tenor"
V:4 bass nm="Bass"
V:1
 z8 c12 | z8 | c6 c2 | A2 F2 c4 | F6 F2 | G4 A3 B | cd c4 B2 | c2 d4 c2- | %8
w: ||Ky- ri-|e, _ _|_ [Ky-||||
 c2"^-natural" BA"^-natural" B4 | c8- | c8- | c8 | z2 c2 c3 B | AG F2 B3 A | G2 A3 F G2- | %15
w: * * * ri-|e,|||Ky- ri- *|* * e, Ky- *||
 G2 F4 E2 | F8- | F4 z4 | z8 | z2 c2 d2 c2 | A2 F2 B2 AG | F2 c2 d2 c2 | f2 ed c2 d2- | %23
w: * * ri-|e,-|||Ky- * *|* * ri- * *|e, Ky- * *||
 d2 c4"^-natural" B2 | c8 | z8 | z4 z2 f2- | f2 e2 d2 c2- | c2 B2 c4- | c4 z2 F2 | F3 F G2 F2 | %31
w: * * ri-|e,-||Ky-||* ri- *|e, Ky-|ri- * * e,-|
 c3 B A2 G2 | F2 A2 A2 G2- | GF F4 E2 | F8 || z8 | z8 | z8 | z4 z2 F2 | G4 A3 B | c2 d4 c2- | %41
w: Ky- * * *|* ri- e] e-|* * le- y-|son.||||Chri-|||
 c2"^-natural" B2 c4- | c8 | z2 c2 B2 G2 | A2 c3 B A2- | A2 G2 GF F2- | F2 E2 F3 G | A2 F2 G2 A2 | %48
w: * * ste,||Chri- * *|||||
 B2 G2 A3 B | c2 G2 A2 B2 | c2 A2 B2 G2- | G2 c4"^-natural" B2 | c8 | z8 | z8 | z4 z2 G2 | %56
w: ||||ste,-|||Chri-|
 A3 B c2 d2- | dcBA G2 c2- | c2 B2 c4 | A2 B4 G2 | A4 F2 B2 | G2 A2 F2 G2- | G2 F3 E E2 | F8 || %64
w: |||||* * ste], e-|* le- * y-|son.|
 z8 | c4 A2 F2 | c4 F4 | A3 B c2 d2- | d2 c4"^-natural" B2 | c6 c2 | B2 G2 A4 | B2 G4 A2- | %72
w: |Ky- * *|||* * ri-|e, [Ky-|||
 AG F4 E2 | F8 | z8 | z8 | z2 d2 c2 A2 | d4 c2 c2- | c2"^-natural" B2 c4 | z4 z2 f2 | e2 c2 d4 | %81
w: * * * ri-|e,|||Ky- * *|ri- e, Ky-|* ri- e,|Ky-|* * ri-|
 c2 c4"^-natural" B2 | c8 | z2 c2 d2 f2 | e6 c2- | c2 BA G4 | A4 z2 A2 | G2 E2 F2 c2 | %88
w: e, Ky- ri-|e,|Ky- * *||* * * ri-|e, Ky-||
 B2 A2 c3 B/A/ | G2 F2 A2 G2- | G2 F4 E2 | F3 G A2 B2 | A2 G4 A2- | AG F4 E2 | F8 |] %95
w: ||* * ri-|e, * * *|* * ]|e- * le- y-|son.|
V:2
"^3" z8 C12 | z8 | z4 C4- | C2 C2 A,2 F,2 | C4 F,2 F2- | FE E2 F4 | A4 G4 | E2 A3 G F2 | G8 | %9
w: ||Ky-|* ri- e *|* * [Ky-|* * ri- e,||||
 z2 G3 FED | C2 F2 FG A2 | G2 F4 E2 | F8- | F8 | E4 D4- | D2 B,2 C4- | C4 z4 | z2 C2 D2 C2 | %18
w: Ky- * * *|* ri- e * *|||||||Ky- * *|
 A,2 F,2 B,2 A,G, | F,2 F2 D2 E2 | F4 G2 E2 | C2 F2 D2 E2 | A,2 A6 | G2 F2 G4- | G4 z4 | z8 | %26
w: * * ri- * *|e Ky- * *||||* ri- e,-|||
 z4 z2 A2- | A2 G2 F2 E2 | D4 C4- | C4 z2 C2 | C3 D E2 C2 | C3 D/E/ F2 C2 | D2 F3 E E2 | D4 C4 | %34
w: Ky-||ri- e,|* Ky-|ri- * * e-|Ky- * * * ri-|e * ] e-|le- y-|
 C8 || G6 FG | A2 G2 E2 C2 | F2 E2 C4 | D2 C4 F2- | FE E2 F4 | G6 G2 | A2 G4 E2 | F2 G2 C2 F2 | %43
w: son.|Chri- * *|||* * ste|* * [Chri- *||||
 E2 F2 D2 E2 | F2 ED E2 F2 | C2 G,2 A,2 B,2 | C4 z2 C2 | F3 E D2 F2- | F2 E2 F4 | E4 E2 G2- | %50
w: |||ste, Chri-|||ste, Chri- *|
 G2 F2 G4- | G2 A2 G4 | z2 G4 E2 | G2 A3 GFE | D2 G3 FED | C2 F4 E2 | F4 z4 | z8 | G4 E2 F2- | %59
w: |* * ste|Chri- *||||ste,||Chri- * *|
 F2 D2 E4 | C2 D4 D2 | E2 C4 D2- | DC A,B, C4 | C8 || C4 A,2 F,2 | C4 F,4 | A,3 B, CD C2 | %67
w: |* ste, Chri-|* ste] e-|* * le- * y-|son.|Ky- * *||* * * * ri-|
 F,2 F4 D2- | DE F2 G4 | G2 E2 C2 F2- | F2 E2 F3 E | DCB,A, G,2 C2- | CB, B,2 C4- | C4 z2 F2 | %74
w: e, [Ky- *|||||* * ri- e,|* Ky-|
 E2 C2 D4 | C4 z2 G2 | F2 D2 E4 | D2 G4"^#" F2 | G4 z4 | z2 G2 F2 D2 | E4 D2 G2- | G2"^#" F2 G4 | %82
w: * * ri-|e, Ky-||* * ri-|e,|Ky- * *|ri- * *|* ri- e,|
 z2 G3 F ED | C2 F,2 A,2 B,2 | C3 D EF G2 | C2 F4 E2 | F8 | z2 G2 A4 | G2 E2 F2 C2 | E2 C2 D2 G,2 | %90
w: Ky- * * *|||* * ri-|e,|Ky- *|||
 A,2 B,2 C4 | A,2 C2 D F2 E | F2 D2 _E2 C2 | C2 B,2 C4 | C8 |] %95
w: * * ri-|e * * * *||]e- le- y-|son.|
V:3
"^5" z8 C12 | z8 | z8 | z4 C4- | C2 C2 A,2 F,2 | C4 F,2 F2- | F2 E2 D4 | C2 F3 EDC | D8 | C8- | %10
w: |||Ky-|* ri- e _|_ _ [Ky-|||ri-|e,|
 C8 | z2 C2 C2 C2- | CB,A,G, F,G,A,B, | C2 D4 D2 | C4 A,2 B,2- | B,A,G,F, G,4 | F,8 | z8 | %18
w: _|Ky- ri- e,|_ _ _ _ _ _ _ _|* Ky- ri-|e, _ _|_ _ _ _ _|||
 z2 C2 D2 C2 | A,2 F,2 B,2 A,G, | F,2 C2 D2 C2- | CB, A,2 G,2 C2 | D2 C2 F4 | E2 C2 D4 | %24
w: Ky- * *|* * ri- * *|e, Ky- * *|||* * ri-|
 C4 z2 F2- | F2 E2 D2 C2- | C2"^-natural" B,2 C4- | C2 C2 F,2 G,2 | A,2 B,2 G,4 | A,2 G,2 A,4 | %30
w: e, Ky-||* ri- e,|_ Ky- * *||* * ri-|
 F,4 z2 F,2 | F,6 G,2 | A,2 F,2 C4 | A,2 B,2 G,4 | F,8 || z8 | z8 | z8 | z8 | z2 B,2 C3 D | %40
w: e, Ky-|ri- *|* e,] e-|le- * y-|son.|||||Chri- * *|
 _E2 D2 B,2 C2 | D4 C4- | C4 z2 C2- | C2 A,2 B,2 C2 | F,G,A,B, C3 B, | A,G, B,3 A, F,2 | G,4 F,4 | %47
w: |* ste,|_ [Chri-||||* ste,-|
 z4 z2 C2 | D2 B,2 D4 | C4 z2 D2 | E2 C2 D4 | E2 F2 D4 | C8 | z8 | z8 | z8 | z2 F4 D2- | D2 E4 DC | %58
w: Chri-||ste, Chri-|||ste,||||Chri- *||
 D4 C4 | D4 B,2 C2- | C2 A,2 B,4 | C3 B, A,G, B,2 | A,2 F,2 G,4 | F,8 || z8 | z8 | C4 A,2 F,2 | %67
w: |||ste, _ _ ], e-|le- * y-|son.|||Ky- * *|
 C4 F,2 F2- | FE C2 D4 | C3 D E2 C2 | D2 B,2 C2 A,2 | B,4 C3 B, | A,2 G,F, G,4 | F,8 | %74
w: |||||* * * ri-|e,|
 z2 C2 B,2 G,2 | A,4 G,2 C2- | C2 B,2 C3 D/E/ | F2 B,2 C4 | D4 C2 A,2 | G,2 C4 B,2 | %80
w: Ky- * *||||||
 C3 D/E/ F2 B,2 | C4 D4 | C6 C2 | A,4 F,4 | G,8- | G,8 | F,8 | z2 C4 A,2 | B,2 C2 F,4 | %89
w: |* ri-|e, Ky-||ri-||e,|Ky- *||
 G,2 A,4 B,2- | B,A, F,2 G,4 | F,6 G,2 | A,2 B,4 A,2 | F,4 G,4 | F,8 |] %95
w: |* * * ri-|e _|_ ]e- le-|y- *|son.|
V:4
 C12 x8 | C6 C2 | A,2 F,2 C4 | F,4 F,4- | F,2 E,2 D,4 | C,4 F,4- | F,4 G,4 | A,2 F,2 A,4 | G,8 | %9
w: |Ky- ri-|e, _ _|_ [Ky-|||||ri-|
 C,4 z2 C2- | CB,A,G, F,3 E,/D,/ | E,2 F,2 C,4 | F,4 F,2 F,2- | F,E,D,C, B,,4 | C,4 D,2 B,,2 | %15
w: e, Ky-||* ri- e,|Ky- ri- e|_ _ _ _ _||
 D,4 C,4 | z2 C2 D2 C2 | A,2 F,2 B,2 A,G, | F,4 z2 F,2- | F,2 A,2 G,2 C2- | CB, A,2 G,2 A,2- | %21
w: |Ky- * *|* * ri- * *|e, Ky-|||
 A,2 F,2 B,2 A,2 | F,3 G, A,2 F,2 | G,2 A,2 G,4 | C,4 z2 A,2- | A,2 G,2 F,2 E,2 | D,4 C,2 F,2- | %27
w: ||* * ri-|e, Ky-||r!- e, Ky-|
 F,E, C,2 D,2 E,2 | F,2 G,2 C,4 | z2 C,2 F,3 G, | A,2 F,2 C3 B, | A,2 G,2 F,2 E,2 | D,4 C,4 | %33
w: |* ri- e,|Ky- * *|* ri- e, _|_ _ _ _|] e-|
 D,2 B,,2 C,4 | F,8 || z8 | C6 B,C | D2 C2 A,2 F,2 | B,2 A,2 F,2 A,2 | G,4 F,3 D, | C,2 G,4 E,2 | %41
w: le- * y-|son.||Chri- * *|||||
 F,2 G,2 C,4 | F,2 E,2 F,4 | C,2 F,2 G,2 C,2 | C3 B, A,G, F,2- | F,2"^b" E,2 D,4 | C,4 F,4 | %47
w: ||||||
 F,2 B,4 A,2 | G,4 F,4 | z2 C4 B,2 | A,4 G,2 G,2- | G,2 F,2 G,4 | C,4 z2 C2- | C2 A,4 B,2- | %54
w: ste [Chri- *|* ste|Chri- *|||ste, Chri-||
 B,2 G,4 A,2- | A,2 G,F, G,4 | F,4 z4 | z8 | G,4 A,4 | F,2 G,4 E,2 | F,4 D,2 G,2 | E,2 F,3 E,D,C, | %62
w: ||ste,||Chri- *|||ste] e- * * *|
 D,4 C,4 | F,8 || z4 C4 | A,2 F,2 C4 | F,6 F,2 | F,3 G, A,2 B,2- | B,C A,2 G,4 | z2 C3 B, A,2 | %70
w: le- y-|son.|Ky-||* ri-|e _ _ _|_ _ _ _|Ky- * *|
 G,4 F,4 | G,3 F, E,2 D,C, | D,4 C,4 | z2 F,3 G,A,B, | C2 A,2 G,4 | z2 F,2 E,2 C,2 | D,4 C,2 C2 | %77
w: ||ri- e,|Ky- * * *|* ri- e,|Ky- * *|ri- e, Ky-|
 B,2 G,2 A,4 | G,4 z2 F,2 | E,2 C,2 D,4 | C,2 C2 B,2 G,2 | A,4 G,4 | C,4 z2 C,2 | F,4 D,4 | C,8- | %85
w: * * ri-|e Ky-|* * ri-|e, Ky- * *|ri- *|e, Ky-|ri- *|e,|
 C,8 | z2 C4 A,2 | B,2 C2 F,4 | G,2 A,3 G, F,2 | E,2 F,4 E,2 | D,4 C,4 | C3 B, A,2 G,2 | %92
w: _|Ky- *||||ri- e,|Ky- * * ri-|
 F,2 G,2 _E,2 F,2 | D,4 C,4 | F,8 |] %95
w: e,] e- le- *|y- *|son.|

